X: 1
T:Blue Cap(For Me). (p)1651.PLFD.008
M:6/4
L:1/4
Q:3/4=100
S:Playford, Dancing Master,1st Ed.,1651.
O:England
H:1651.
Z:Chris Partington.
K:F
F | BBfbbd | c2BG2d | BBfddg | c>fef2 :|
|: f | ddBccG | F2d_e2g | ffdfga | bfdc2f |
ddBccG |[M:9/4][L:1/4][Q:3/4=100] F2d_e3e2g |[M:6/4][Q:3/4=100] ffdfga | bfdc2 :|

